assets/jira/plain.svg

<svg viewBox="0 0 128 128" xmlns="http://www.w3.org/2000/svg">
<path d="m61.805 16c0 11.52 9.3287 20.848 20.848 20.848h8.5v8.2266c0 11.52 9.3277 20.848 20.848 20.848v-45.945a3.978 3.978 0 0 0-3.9766-3.9766h-46.219zm-22.902 23.039c0 11.519 9.3248 20.848 20.844 20.848h8.5039v8.2266c0 11.52 9.3277 20.848 20.848 20.848v-45.945a3.983 3.983 0 0 0-3.9766-3.9766h-46.219zm-22.902 23.039c0 11.52 9.3238 20.848 20.844 20.848h8.5039v8.2266c0 11.524 9.3287 20.848 20.848 20.848v-45.941a3.984 3.984 0 0 0-3.9766-3.9805h-46.219z"/>
</svg>

<svg xmlns="http://www.w3.org/2000/svg" viewBox="0 0 128 128"><path d="M61.805 16c0 11.52 9.329 20.848 20.848 20.848h8.5v8.227c0 11.52 9.328 20.848 20.848 20.848V19.978A3.98 3.98 0 0 0 108.024 16zM38.903 39.039c0 11.519 9.325 20.848 20.844 20.848h8.504v8.227c0 11.52 9.328 20.848 20.848 20.848V43.017a3.983 3.983 0 0 0-3.977-3.977H38.903zM16.001 62.078c0 11.52 9.324 20.848 20.844 20.848h8.504v8.227c0 11.524 9.329 20.848 20.848 20.848V66.06a3.984 3.984 0 0 0-3.977-3.98H16.001z"/></svg>
